icon/ir/translate.svg

<svg stroke-width="1.5" viewBox="0 0 24 24" fill="none" xmlns="http://www.w3.org/2000/svg" height="1em" width="1em">
  <path d="M2 5H9M16 5H13.5M9 5L13.5 5M9 5V3M13.5 5C12.6795 7.73513 10.9612 10.3206 9 12.5929M4 17.5C5.58541 16.1411 7.376 14.4744 9 12.5929M9 12.5929C8 11.5 6.4 9.3 6 8.5M9 12.5929L12 15.5" stroke="currentColor" stroke-linecap="round" stroke-linejoin="round"/>
  <path d="M13.5 21L14.6429 18M21.5 21L20.3571 18M14.6429 18L17.5 10.5L20.3571 18M14.6429 18H20.3571" stroke="currentColor" stroke-linecap="round" stroke-linejoin="round"/>
</svg>

<svg width="24" height="24" stroke-width="1.5" fill="none" xmlns="http://www.w3.org/2000/svg"><path d="M2 5h7m7 0h-2.5M9 5h4.5M9 5V3m4.5 2c-.82 2.735-2.539 5.32-4.5 7.593M4 17.5c1.585-1.359 3.376-3.026 5-4.907m0 0C8 11.5 6.4 9.3 6 8.5m3 4.093 3 2.907M13.5 21l1.143-3m6.857 3-1.143-3m-5.714 0 2.857-7.5 2.857 7.5m-5.714 0h5.714" stroke="currentColor" stroke-linecap="round" stroke-linejoin="round"/></svg>
